X:36
T: Das Schwabentoechterlein
N: Q0073N
O: Mitteleuropa, Deutschland (DDR) , Sachsen - Anhalt
R: Ballade, Weglaufen, Schwangerschaft, Rueckkehr
M: 6/8
L: 1/8
K: G
D | D2GG2G | G2DD2
D | E2FG2E | E2DD2
D | D2cc2D | D2BB2
G | F2GA2F | A2GGz

@@@ Tune index: 1091
